packages/foundations/assets/icons/functional/images/editing/copy_32.svg

<svg width="32" height="32" viewBox="0 0 32 32" fill="none" xmlns="http://www.w3.org/2000/svg">
<g clip-path="url(#clip0_83_112)">
<path fill-rule="evenodd" clip-rule="evenodd" d="M8.99998 10C9.2652 10 9.51956 10.1054 9.70709 10.2929C9.89463 10.4804 9.99998 10.7348 9.99998 11C9.99998 11.513 9.51698 12.005 8.99998 12H6.49998C6.25498 12 5.99998 12.242 5.99998 12.5V26.5C5.99998 26.745 6.25998 27.001 6.49998 27H17.5C17.745 27 18.002 26.73 18 26.5V25C18 24.7348 18.1053 24.4804 18.2929 24.2929C18.4804 24.1054 18.7348 24 19 24C19.513 24 20.003 24.501 20 25V26.5C20 27.825 18.797 29.002 17.5 29H6.49998C5.17498 29 4.00398 27.804 3.99998 26.5V12.5C3.99998 11.175 5.18698 10.006 6.49998 10H8.99998ZM25.5 3C26.825 3 28.007 4.231 28 5.5V19.5C28 20.825 26.797 22.005 25.5 22H14.5C13.175 22 12.01 20.802 12 19.5V5.5C12 4.175 13.185 3.006 14.5 3H25.5ZM14.5 5C14.255 5 14.006 5.255 14 5.5V19.5C14 19.745 14.233 20.006 14.5 20H25.5C25.745 20 26.008 19.741 26 19.5V5.5C26 5.255 25.722 5.008 25.5 5H14.5Z" fill="#1A1C1F"/>
</g>
<defs>
<clipPath id="clip0_83_112">
<rect width="32" height="32" fill="white"/>
</clipPath>
</defs>
</svg>

<svg xmlns="http://www.w3.org/2000/svg" width="32" height="32" fill="none"><g clip-path="url(#a)"><path fill="#1A1C1F" fill-rule="evenodd" d="M9 10a1 1 0 0 1 1 1c0 .513-.483 1.005-1 1H6.5c-.245 0-.5.242-.5.5v14c0 .245.26.501.5.5h11c.245 0 .502-.27.5-.5V25a1 1 0 0 1 1-1c.513 0 1.003.501 1 1v1.5c0 1.325-1.203 2.502-2.5 2.5h-11c-1.325 0-2.496-1.196-2.5-2.5v-14c0-1.325 1.187-2.494 2.5-2.5zm16.5-7c1.325 0 2.507 1.231 2.5 2.5v14c0 1.325-1.203 2.505-2.5 2.5h-11c-1.325 0-2.49-1.198-2.5-2.5v-14c0-1.325 1.185-2.494 2.5-2.5zm-11 2c-.245 0-.494.255-.5.5v14c0 .245.233.506.5.5h11c.245 0 .508-.259.5-.5v-14c0-.245-.278-.492-.5-.5z" clip-rule="evenodd"/></g><defs><clipPath id="a"><path fill="#fff" d="M0 0h32v32H0z"/></clipPath></defs></svg>
